X: 3522
T: Big Ben
R: jig
M: 6/8
K: Dmajor
|:DFA AFD|GBd dBG|ABA dAF|BAF EFE
DFA AFD|GBd dBG|1 ABA dAF|EAC D3:|2 ABA agf|edc d2A||
def fed|efg g g/g/g|afd Adf|edB ABc
def fed|efg g g/g/g|aba gfe|fdc d2A
def fed|efg g g/g/g|afd Adf|edB AFE
DFA AFD|GBd dBG|A A/A/A agf|edc d2A||

